src/images/menu/devnet.svg

<?xml version="1.0" encoding="UTF-8"?>
<svg width="24px" height="24px" viewBox="0 0 24 24" version="1.1" xmlns="http://www.w3.org/2000/svg" xmlns:xlink="http://www.w3.org/1999/xlink">
    <title>devnet</title>
    <g id="devnet" stroke="none" stroke-width="1" fill="none" fill-rule="evenodd">
        <rect id="16x16" x="0" y="0" width="24" height="24"></rect>
        <g transform="translate(5.000000, 5.000000)" fill="#FFFFFF" fill-rule="nonzero">
            <path d="M15,2.4600001 L15,2.4600001 L15,1.4600001 C14.9783186,0.647234911 14.3130543,-0.000289039229 13.5,4.4408921e-16 L1.5,4.4408921e-16 C0.671572875,4.4408921e-16 0,0.671572972 0,1.5 L0,2.5 L15,2.4600001 Z" id="Path"></path>
            <path d="M15,4.0000001 L0,4.0000001 L0,12.4700001 C0,13.2984272 0.671572875,13.9700001 1.5,13.9700001 L13.5,13.9700001 C14.3284271,13.9700001 15,13.2984272 15,12.4700001 L15,4.0000001 Z M4.29,11.4600001 C4.09024774,11.4645079 3.89784143,11.3846411 3.76,11.2400001 C3.61705222,11.1007123 3.53643005,10.9095876 3.53643005,10.7100001 C3.53643005,10.5104126 3.61705222,10.3192879 3.76,10.1800001 L5.37,8.5700001 L3.76,7.0000001 C3.61705222,6.8607123 3.53643005,6.66958757 3.53643005,6.4700001 C3.53643005,6.27041263 3.61705222,6.07928789 3.76,5.9400001 C4.05281755,5.64754672 4.52718245,5.64754672 4.82,5.9400001 L7,8.0000001 C7.15308969,8.1419287 7.24009805,8.34124143 7.24009805,8.5500001 C7.24009805,8.75875876 7.15308969,8.9580715 7,9.1000001 L4.82,11.2400001 C4.68011612,11.3816364 4.48906645,11.46094 4.29,11.4600001 Z M10.71,11.4600001 L7.5,11.4600001 C7.08578644,11.4600001 6.75,11.1242137 6.75,10.7100001 C6.75,10.2957865 7.08578644,9.9600001 7.5,9.9600001 L10.71,9.9600001 C11.1242136,9.9600001 11.46,10.2957865 11.46,10.7100001 C11.46,11.1242137 11.1242136,11.4600001 10.71,11.4600001 Z" id="Shape"></path>
        </g>
    </g>
</svg>

<svg xmlns="http://www.w3.org/2000/svg" viewBox="0 0 15 13.93"><defs><style>.cls-1{fill:#fff;}</style></defs><g id="Layer_2" data-name="Layer 2"><g id="Layer_1-2" data-name="Layer 1"><path class="cls-1" d="M15,2.46h0v-1A1.5,1.5,0,0,0,13.5,0H1.5A1.5,1.5,0,0,0,0,1.5v1Z"/><path class="cls-1" d="M15,4H0v8.47a1.5,1.5,0,0,0,1.5,1.5h12a1.5,1.5,0,0,0,1.5-1.5V4ZM4.29,11.46a.71.71,0,0,1-.53-.22.74.74,0,0,1,0-1.06L5.37,8.57,3.76,7a.74.74,0,0,1,0-1.06.75.75,0,0,1,1.06,0L7,8A.75.75,0,0,1,7,9.1L4.82,11.24A.74.74,0,0,1,4.29,11.46Zm6.42,0H7.5a.75.75,0,0,1,0-1.5h3.21a.75.75,0,0,1,0,1.5Z"/></g></g></svg>
